X:305
%%etbk:tnset id:95,pos:1,rep:3x,ant:,targ:Ceili,env:Toe for Toe
%%etbk:wsite http://www.thesession.org/tunes/display/5
%%etbk:skill ?
%%etbk:color #ffccbf
%%etbk:pldat 2013-10-30T16:32,2013-10-29T16:10,2013-10-28T18:50,2013-10-27T13:56,2013-10-23T18:03,2013-10-18T15:36,2013-10-17T19:04,2013-10-16T15:44,2013-10-15T18:11,2013-10-14T18:33,2013-10-13T14:48,2013-10-08T15:50
T: Blarney Pilgrim, The
Z: Piano Box Version by Martin Fleischmann
H: Created 2013-02-19 /  Last Modified 2013-10-13
M: 6/8
L: 1/8
R: jig
K: Dmix
|: "G"!1!D!2!D!1!D !1!DE!4!G | "D"!3!ADA ABc | "G"!4!BAG A!2!G!1!E | !4!GEA !4!G!2!E!1!D |
"G"!1!D !3!(3D!2!D!1!D !1!DE!4!G | "D"!3!A{c}AA ABc | "G"!4!BAG A!2!G!1!E | !4!GED !1!D3:|
|: "G"!5!dDd d!4!B!2!G | "D"!3!AAA "G"!4!B!2!G!1!E | !5!d2d !5!d!4!B!2!G | "D"!3!ABA "G"!1!G !2!(3B!3!c!1!d |
"G"!4!g2!2!e !1!d!3!B!1!G | !3!AAA !4!B!2!G!1!E | !4!B2G AGA | !4!B!2!G!1!E !2!G3:|
|: "D"!3!A!1!DD !4!B!1!DD | !3!A!1!DD !3!ABc | "G"!4!BAG A!2!G!1!E | !4!GGA !2!G!1!E!1!D |
"D"!3!A!1!DD !4!B!1!DD | !3!A!1!DD !3!ABc | "G"!4!BAG A!2!G!1!E | !4!GED !1!D3:|
